X: 338
T:The Frost is All Over
M:6/8
L:1/8
R:Jig
Z:Kevin Gow
K:D
A|:def edA|BdB AFD|DCD BAF|EFE E2B|def edA|!
BdB AFE|1DCD BAF|EDC D2A:|2GFG BAG|AFD D2e||!
|:fef afd|gfg bag|fef afd|ede aga|!
fef dc=c|BAB GBd|gfg baf|1gec d2e:|2gec d3||

